src/lib/packages/icons/src/assets/filled/light-emergency.svg

<svg width="24" height="24" viewBox="0 0 24 24" fill="none" xmlns="http://www.w3.org/2000/svg">
<path d="M12 3C9.88 3 8.02995 3.8 6.69995 5.25C5.37995 6.71 4.59009 8.81997 4.59009 11.47V16.2C4.59009 16.366 4.72389 16.5 4.88989 16.5H19.1101C19.2761 16.5 19.4099 16.366 19.4099 16.2V11.47C19.4099 6.17997 16.24 3 12 3ZM12 7.51099C10.487 7.51099 9.25909 8.64495 9.14209 10.1479C9.11109 10.5409 8.78302 10.8391 8.39502 10.8391C8.37502 10.8391 8.35596 10.8389 8.33496 10.8369C7.92196 10.8049 7.613 10.444 7.646 10.031C7.826 7.73901 9.697 6.01099 12 6.01099C12.414 6.01099 12.75 6.34699 12.75 6.76099C12.75 7.17499 12.414 7.51099 12 7.51099ZM3 19.5C3 18.672 3.672 18 4.5 18H19.501C20.329 18 21 18.671 21 19.499V21H3V19.5Z" fill="currentColor"/>
</svg>

<svg xmlns="http://www.w3.org/2000/svg" width="24" height="24" fill="none"><path fill="currentColor" d="M12 3c-2.12 0-3.97.8-5.3 2.25-1.32 1.46-2.11 3.57-2.11 6.22v4.73a.3.3 0 0 0 .3.3h14.22a.3.3 0 0 0 .3-.3v-4.73C19.41 6.18 16.24 3 12 3Zm0 4.511a2.842 2.842 0 0 0-2.858 2.637.75.75 0 0 1-1.496-.117A4.333 4.333 0 0 1 12 6.011a.75.75 0 0 1 0 1.5ZM3 19.5A1.5 1.5 0 0 1 4.5 18h15.001c.828 0 1.499.671 1.499 1.499V21H3v-1.5Z"/></svg>
